lib/flags/me-montenegro.svg

<svg xmlns="http://www.w3.org/2000/svg" fill="none" aria-hidden="true" viewBox="0 0 42 30"><g id="Country=ME - Montenegro, Size=sm (36x24)" filter="url(#filter0_dd_91_26547)"><g clip-path="url(#clip0_91_26547)"><g id="flag"><mask id="mask0_91_26547" width="36" height="24" x="3" y="2" maskUnits="userSpaceOnUse" style="mask-type:alpha"><rect id="mask" width="36" height="24" x="3" y="2" fill="white"/></mask><g mask="url(#mask0_91_26547)"><g id="contents"><path id="background" fill="#E8AA00" fill-rule="evenodd" d="M3 2H39V26H3V2Z" clip-rule="evenodd"/><path id="top" fill="#C51918" fill-rule="evenodd" d="M7.5 6H34.5V22H7.5V6Z" clip-rule="evenodd"/><mask id="mask1_91_26547" width="28" height="16" x="7" y="6" maskUnits="userSpaceOnUse" style="mask-type:alpha"><path id="top_2" fill="white" fill-rule="evenodd" d="M7.5 6H34.5V22H7.5V6Z" clip-rule="evenodd"/></mask><g mask="url(#mask1_91_26547)"><g id="mark"><path id="Oval 32" fill="#1E5E91" fill-rule="evenodd" d="M25.76 17.7513C26.2188 17.7513 26.5907 17.4125 26.5907 16.9945C26.5907 16.5766 26.2188 16.2378 25.76 16.2378C25.3011 16.2378 24.9292 16.5766 24.9292 16.9945C24.9292 17.4125 25.3011 17.7513 25.76 17.7513Z" clip-rule="evenodd"/><path id="Combined Shape" fill="#F6C540" fill-rule="evenodd" d="M14.9563 14.332C12.7769 12.0805 15.9004 8.17334 15.9004 8.17334C15.9004 8.17334 16.3674 10.5069 18.0958 12.0772C18.0958 12.1886 17.9326 12.3532 17.7674 12.5197C17.652 12.636 17.5356 12.7534 17.4731 12.8543C17.3211 13.0998 17.8428 13.2398 18.0958 13.2398C18.2094 13.2398 18.2721 13.3861 18.3287 13.5183C18.3983 13.6805 18.4586 13.8212 18.5925 13.643C18.8354 13.3195 18.3496 12.6088 18.3496 12.6088L19.1186 11.8878L19.3787 11.4217H19.1186V10.9419L18.9364 11.0749C18.9364 11.0749 18.7364 10.6458 18.3496 10.6458C17.9627 10.6458 17.8428 10.4496 17.8428 10.4496H18.3496C18.6033 10.4496 18.309 10.1507 18.0958 9.99506C18.0002 9.92527 17.8553 9.94933 17.7244 9.97105C17.5633 9.99779 17.4235 10.021 17.4235 9.86126C17.4235 9.68619 17.5768 9.66299 17.754 9.63619C17.8698 9.61868 17.9958 9.59962 18.0958 9.53562C18.2612 9.42976 18.4841 9.46231 18.7254 9.49754C18.8533 9.5162 18.9863 9.53562 19.1186 9.53562H19.7452C19.9714 9.53562 19.3787 9.86126 19.3787 9.86126L19.7452 10.1507L20.2902 10.6458L20.0176 10.7896L20.5801 11.2744C20.5801 11.2744 20.3892 11.5504 20.5801 11.5504C20.6587 11.5504 20.7105 11.6076 20.7442 11.675C20.7779 11.6076 20.8297 11.5504 20.9083 11.5504C21.0992 11.5504 20.9083 11.2744 20.9083 11.2744L21.4707 10.7896L21.1982 10.6458L21.7432 10.1507L22.1097 9.86126C22.1097 9.86126 21.517 9.53562 21.7432 9.53562H22.3698C22.5021 9.53562 22.6351 9.5162 22.7629 9.49754C23.0043 9.46231 23.2272 9.42976 23.3926 9.53562C23.4926 9.59962 23.6186 9.61868 23.7344 9.63619C23.9115 9.66299 24.0649 9.68619 24.0649 9.86126C24.0649 10.021 23.9251 9.99779 23.764 9.97105C23.6331 9.94933 23.4881 9.92527 23.3926 9.99506C23.1794 10.1507 22.885 10.4496 23.1388 10.4496H23.6456C23.6456 10.4496 23.5257 10.6458 23.1388 10.6458C22.752 10.6458 22.552 11.0749 22.552 11.0749L22.3698 10.9419V11.4217H22.1097L22.3698 11.8878L23.1388 12.6088C23.1388 12.6088 22.653 13.3195 22.8959 13.643C23.0298 13.8212 23.0901 13.6805 23.1596 13.5183C23.2163 13.3861 23.279 13.2398 23.3926 13.2398C23.6456 13.2398 24.1673 13.0998 24.0153 12.8543C23.9528 12.7534 23.8364 12.636 23.721 12.5197C23.5558 12.3532 23.3926 12.1886 23.3926 12.0772C25.121 10.5069 25.5879 8.17334 25.5879 8.17334C25.5879 8.17334 28.7115 12.0805 26.5321 14.332C24.3527 16.5834 22.752 15.9045 22.752 15.9045L23.6456 16.6168L23.3926 16.8114H24.1371L23.8634 16.9741L24.0649 17.0526L24.2782 17.1357C24.2782 17.1357 23.7031 17.5116 24.2782 17.5116C24.3691 17.5116 24.4653 17.5092 24.5643 17.5068C24.6728 17.5041 24.7846 17.5013 24.8964 17.5015C24.9266 17.5016 24.8592 17.3542 24.7925 17.2081C24.7266 17.0639 24.6613 16.921 24.6907 16.9221C24.7529 16.9245 24.875 17.0555 24.9976 17.187C25.0953 17.2919 25.1933 17.397 25.2614 17.4375C25.3052 17.4636 25.4764 17.4107 25.6351 17.3617C25.7692 17.3203 25.8944 17.2817 25.926 17.2958C26.0597 17.3558 26.0255 17.4773 25.993 17.5929C25.9846 17.6226 25.9763 17.6519 25.9711 17.6797C25.9663 17.705 26.1376 17.6063 26.3178 17.5023C26.507 17.3932 26.706 17.2785 26.7212 17.2958C26.7243 17.2995 26.7278 17.3032 26.7314 17.307C26.7957 17.3758 26.8993 17.4866 26.1343 18.0108C26.1343 18.1115 26.1384 18.1937 26.1416 18.2605C26.1521 18.475 26.1549 18.5305 25.9914 18.5305C25.9186 18.5305 25.8168 18.5626 25.6988 18.5998C25.3962 18.6951 24.9875 18.8239 24.6907 18.5305C24.2782 18.1228 23.6456 17.5116 23.6456 17.5116V17.812L22.8959 17.1357L22.752 17.5116L21.7432 16.4817L21.4707 16.6168C21.4707 16.6168 22.3993 18.8945 22.8959 18.9103C23.1427 18.9182 22.768 19.1311 22.2715 19.4131C21.7689 19.6986 21.1417 20.055 20.9083 20.3411C20.8389 20.4263 20.7852 20.2965 20.7442 20.0143C20.7032 20.2965 20.6495 20.4263 20.5801 20.3411C20.3467 20.055 19.7195 19.6986 19.2169 19.4131C18.7204 19.1311 18.3457 18.9182 18.5925 18.9103C19.0891 18.8945 20.0176 16.6168 20.0176 16.6168L19.7452 16.4817L18.7364 17.5116L18.5925 17.1357L17.8428 17.812V17.5116C17.8428 17.5116 17.2101 18.1228 16.7976 18.5305C16.5009 18.8239 16.0922 18.6951 15.7896 18.5998C15.6716 18.5626 15.5698 18.5305 15.497 18.5305C15.2374 18.5305 15.1506 18.2078 15.497 17.812C15.7887 17.4787 16.3961 17.4937 16.9241 17.5068C17.0231 17.5092 17.1193 17.5116 17.2101 17.5116C17.7853 17.5116 17.2101 17.1357 17.2101 17.1357L17.4235 17.0526L17.625 16.9741L17.3513 16.8114H18.0958L17.8428 16.6168L18.7364 15.9045C18.7364 15.9045 17.1357 16.5834 14.9563 14.332Z" clip-rule="evenodd"/><path id="Path 155" fill="#F6C540" fill-rule="evenodd" d="M16.9871 19.0302L16.0026 17.496C16.0026 17.496 14.7154 14.8579 14.7154 14.5376C14.7154 14.2173 14.1973 13.2688 14.1973 13.5441C14.1973 13.8195 14.1973 14.5376 14.1973 14.5376L16.369 18.8866V19.2293H16.6615L16.9871 19.0302Z" clip-rule="evenodd"/><path id="Path 156" fill="#F6C540" d="M24.8726 16.9649L25.0223 16.5229L26.8514 17.0128L26.7017 17.4547L24.8726 16.9649Z"/><path id="Path 157" fill="#F6C540" d="M25.8465 16.1602L26.3411 16.3041L25.8579 17.6821L25.3633 17.5382L25.8465 16.1602Z"/><path id="Combined Shape_2" fill="#F6C540" fill-rule="evenodd" d="M26.3074 15.711L26.2011 15.6895L26.1578 15.8415L25.9625 15.7988L25.9385 15.8916L26.1316 15.9338L26.0824 16.107L26.1887 16.1286L26.2375 15.9569L26.4297 15.9988L26.4538 15.9061L26.2637 15.8646L26.3074 15.711Z" clip-rule="evenodd"/><path id="Combined Shape_3" fill="#F6C540" fill-rule="evenodd" d="M20.6565 7.22217L20.71 7.38798H20.8723L20.9258 7.22217C21.061 7.25833 21.1836 7.29948 21.2935 7.34541L21.2973 7.30911C22.1656 7.37961 22.6162 7.70269 22.5679 8.27073C22.5279 8.74094 22.2601 8.98728 21.8136 8.98096V9.33217C21.8136 9.33217 21.0867 9.58021 20.7232 9.58021C20.3598 9.58021 19.6329 9.33217 19.6329 9.33217V8.975C19.2653 8.93456 19.0458 8.69286 19.0099 8.27073C18.9616 7.70269 19.4122 7.37961 20.2805 7.30911L20.2845 7.34723C20.3955 7.30056 20.5196 7.25881 20.6565 7.22217ZM19.7372 8.66643C19.6883 8.67861 19.6539 8.6876 19.6399 8.6913C19.4405 8.65804 19.3433 8.51646 19.3206 8.2505C19.2978 7.98159 19.4399 7.7945 19.7751 7.68661C19.5464 7.94672 19.5297 8.27759 19.7372 8.66643ZM20.0468 8.59476C20.23 8.55563 20.4419 8.51674 20.6117 8.50338V7.53273C19.9145 7.75026 19.747 8.08302 20.0468 8.59476ZM20.9233 8.51212C21.157 8.53936 21.4408 8.60177 21.6241 8.64566L21.5321 8.60053C21.8433 8.07411 21.6628 7.73634 20.9233 7.51839V8.51212ZM21.809 7.68866C22.0423 7.95569 22.0529 8.29705 21.8273 8.69894C22.102 8.7026 22.2307 8.56168 22.2571 8.2505C22.2799 7.98329 22.1397 7.79687 21.809 7.68866Z" clip-rule="evenodd"/><path id="Oval 33" fill="#3D58DB" fill-rule="evenodd" d="M20.7233 7.5192C20.9241 7.5192 21.0868 7.37455 21.0868 7.19612C21.0868 7.01769 20.9241 6.87305 20.7233 6.87305C20.5226 6.87305 20.3599 7.01769 20.3599 7.19612C20.3599 7.37455 20.5226 7.5192 20.7233 7.5192Z" clip-rule="evenodd"/><path id="Combined Shape_4" fill="#F6C540" fill-rule="evenodd" d="M20.774 6.4982L20.665 6.50017L20.6644 6.65696L20.4632 6.6576L20.4652 6.75278L20.6641 6.75215L20.6635 6.93086L20.7725 6.9289L20.7731 6.75181L20.971 6.75118L20.9691 6.656L20.7734 6.65662L20.774 6.4982Z" clip-rule="evenodd"/><g id="shield"><path id="shield_2" fill="#1E5E91" fill-rule="evenodd" d="M18.6984 12.3592C18.6984 12.3592 19.9783 12.1445 20.6715 12.1445C21.2937 12.1445 22.6446 12.3592 22.6446 12.3592C22.6446 13.7193 23.0752 14.5519 22.6446 15.4808C22.214 16.4098 21.1618 15.9632 20.6856 16.8522C20.0769 16.009 19.2549 16.4731 18.6984 15.2725C18.1419 14.0719 19.0368 13.5189 18.6984 12.3592Z" clip-rule="evenodd"/><mask id="mask2_91_26547" width="5" height="5" x="18" y="12" maskUnits="userSpaceOnUse" style="mask-type:alpha"><path id="shield_3" fill="white" fill-rule="evenodd" d="M18.6984 12.3592C18.6984 12.3592 19.9783 12.1445 20.6715 12.1445C21.2937 12.1445 22.6446 12.3592 22.6446 12.3592C22.6446 13.7193 23.0752 14.5519 22.6446 15.4808C22.214 16.4098 21.1618 15.9632 20.6856 16.8522C20.0769 16.009 19.2549 16.4731 18.6984 15.2725C18.1419 14.0719 19.0368 13.5189 18.6984 12.3592Z" clip-rule="evenodd"/></mask><g mask="url(#mask2_91_26547)"><rect id="Rectangle 44" width="3.94615" height="1.7027" x="18.6982" y="15.1973" fill="#5EAA22"/><path id="lion" fill="#F6C540" fill-rule="evenodd" d="M19.8654 13.0294C19.7146 12.7446 20.6578 12.7114 20.6578 12.7114C20.6578 12.7114 20.8612 13.0294 20.6578 13.4819C20.5099 13.811 20.7565 13.7816 21.0969 13.7411C21.2246 13.726 21.3654 13.7092 21.5035 13.7092C21.7206 13.7092 21.8321 13.6947 21.9261 13.7288C22.0513 13.7743 22.1451 13.9061 22.4157 14.274C22.5416 14.4452 22.536 14.5579 22.46 14.6253C22.4666 14.7994 22.2533 14.9438 21.8594 15.0361L21.8076 14.8529C22.016 14.8041 22.1436 14.7573 22.2029 14.7057C21.9059 14.7217 21.5035 14.5912 21.5035 14.4236C21.5035 14.3432 21.4034 14.2943 21.2485 14.2661V14.3063C21.2512 14.3063 21.272 14.2882 21.276 14.2767L21.2764 14.2794C21.2776 14.2874 21.2804 14.3022 21.2858 14.3232C21.2889 14.3354 21.3004 14.3761 21.3069 14.3994L21.3069 14.3994L21.3114 14.4155C21.3386 14.5147 21.3524 14.5926 21.3524 14.6781C21.3524 14.9168 21.1236 15.0572 20.7098 15.1112L20.6803 14.9239C21.0044 14.8816 21.1447 14.7956 21.1447 14.6781C21.1447 14.6109 21.1333 14.5468 21.1099 14.4613L21.1066 14.4497L21.1066 14.4496L21.1066 14.4496L21.1066 14.4496L21.1066 14.4495C21.1004 14.4274 21.0873 14.381 21.0835 14.3662C21.0739 14.3285 21.069 14.3002 21.069 14.2733C21.069 14.2631 21.0698 14.2533 21.0713 14.2439C20.8068 14.2223 20.4642 14.2344 20.172 14.2492C20.1142 14.6964 19.8541 14.9826 19.3983 15.0904L19.3461 14.9073C19.703 14.8228 19.9061 14.6124 19.9612 14.2604C19.8243 14.268 19.7107 14.274 19.6394 14.274C19.4335 14.274 19.4528 14.1356 19.5524 13.9521C19.1664 13.9266 19.0699 13.5476 19.2192 12.8808L19.4227 12.9186C19.291 13.5067 19.3646 13.7642 19.595 13.7642V13.8784C19.6523 13.7844 19.7242 13.6826 19.7939 13.5837C19.8183 13.5493 19.8423 13.5152 19.8654 13.4819C19.9833 13.3121 20.0225 13.2673 20.0144 13.2341C20.0057 13.1987 19.9433 13.1765 19.8654 13.0294ZM21.2775 14.2756L21.2775 14.2732C21.2775 14.2746 21.2773 14.276 21.277 14.2774L21.2775 14.2756ZM22.128 12.9853C21.5581 12.9049 21.2385 12.9827 21.2385 13.2661C21.2385 13.5359 21.5418 13.6528 22.0966 13.651C22.1182 13.6573 22.1372 13.6635 22.1534 13.6694C22.1326 13.6782 22.1073 13.6874 22.0776 13.6969L22.1465 13.8754C22.4963 13.7633 22.4963 13.5638 22.1423 13.4658L22.1271 13.4616L22.1112 13.4618C21.6501 13.4652 21.4462 13.3883 21.4462 13.2661C21.4462 13.155 21.6397 13.1079 22.0962 13.1723L22.128 12.9853Z" clip-rule="evenodd"/></g></g></g></g></g></g></g></g></g><defs><filter id="filter0_dd_91_26547" width="42" height="30" x="0" y="0" color-interpolation-filters="sRGB" filterUnits="userSpaceOnUse"><feFlood flood-opacity="0" result="BackgroundImageFix"/><feColorMatrix in="SourceAlpha" result="hardAlpha" values="0 0 0 0 0 0 0 0 0 0 0 0 0 0 0 0 0 0 127 0"/><feOffset dy="1"/><feGaussianBlur stdDeviation="1"/><feColorMatrix values="0 0 0 0 0.0627451 0 0 0 0 0.0941176 0 0 0 0 0.156863 0 0 0 0.06 0"/><feBlend in2="BackgroundImageFix" result="effect1_dropShadow_91_26547"/><feColorMatrix in="SourceAlpha" result="hardAlpha" values="0 0 0 0 0 0 0 0 0 0 0 0 0 0 0 0 0 0 127 0"/><feOffset dy="1"/><feGaussianBlur stdDeviation="1.5"/><feColorMatrix values="0 0 0 0 0.0627451 0 0 0 0 0.0941176 0 0 0 0 0.156863 0 0 0 0.1 0"/><feBlend in2="effect1_dropShadow_91_26547" result="effect2_dropShadow_91_26547"/><feBlend in="SourceGraphic" in2="effect2_dropShadow_91_26547" result="shape"/></filter><clipPath id="clip0_91_26547"><rect width="36" height="24" x="3" y="2" fill="white" rx="2"/></clipPath></defs></svg>

<svg xmlns="http://www.w3.org/2000/svg" fill="none" aria-hidden="true" viewBox="0 0 42 30"><g filter="url(#a)"><g clip-path="url(#b)"><mask id="c" width="36" height="24" x="3" y="2" maskUnits="userSpaceOnUse" style="mask-type:alpha"><path fill="#fff" d="M3 2h36v24H3z"/></mask><g mask="url(#c)"><path fill="#E8AA00" fill-rule="evenodd" d="M3 2h36v24H3V2Z" clip-rule="evenodd"/><path fill="#C51918" fill-rule="evenodd" d="M7.5 6h27v16h-27V6Z" clip-rule="evenodd"/><mask id="d" width="28" height="16" x="7" y="6" maskUnits="userSpaceOnUse" style="mask-type:alpha"><path fill="#fff" fill-rule="evenodd" d="M7.5 6h27v16h-27V6Z" clip-rule="evenodd"/></mask><g mask="url(#d)"><path fill="#1E5E91" fill-rule="evenodd" d="M25.76 17.751c.459 0 .83-.338.83-.757 0-.417-.371-.756-.83-.756-.459 0-.83.339-.83.756 0 .419.371.757.83.757Z" clip-rule="evenodd"/><path fill="#F6C540" fill-rule="evenodd" d="M14.956 14.332c-2.18-2.252.944-6.159.944-6.159s.467 2.334 2.196 3.904c0 .112-.163.276-.329.443a2.232 2.232 0 0 0-.294.334c-.152.246.37.386.623.386.113 0 .176.146.233.278.07.162.13.303.264.125.242-.324-.243-1.034-.243-1.034l.769-.721.26-.466h-.26v-.48l-.183.133s-.2-.43-.586-.43c-.387 0-.507-.195-.507-.195h.507c.253 0-.041-.3-.254-.455-.096-.07-.24-.046-.372-.024-.16.027-.3.05-.3-.11 0-.175.153-.198.33-.225.116-.017.242-.036.342-.1.165-.106.388-.074.63-.038.127.018.26.038.393.038h.626c.226 0-.366.325-.366.325l.366.29.545.495-.272.144.562.484s-.19.276 0 .276c.079 0 .13.058.164.125.034-.067.086-.125.164-.125.191 0 0-.276 0-.276l.563-.484-.273-.144.545-.495.367-.29s-.593-.325-.367-.325h.627c.132 0 .265-.02.393-.038.241-.036.464-.068.63.038.1.064.226.083.341.1.177.027.33.05.33.225 0 .16-.139.137-.3.11-.13-.022-.276-.046-.371.024-.214.156-.508.455-.254.455h.507s-.12.196-.507.196-.587.429-.587.429l-.182-.133v.48h-.26l.26.466.769.72s-.486.711-.243 1.035c.134.178.194.037.264-.125.056-.132.119-.278.233-.278.253 0 .774-.14.622-.386a2.232 2.232 0 0 0-.294-.334c-.165-.167-.328-.331-.328-.443 1.728-1.57 2.195-3.904 2.195-3.904s3.123 3.908.944 6.159c-2.18 2.251-3.78 1.572-3.78 1.572l.894.713-.253.194h.744l-.274.163.202.079.213.083s-.575.376 0 .376c.091 0 .187-.003.286-.005.109-.003.22-.006.332-.006.03 0-.037-.147-.104-.293-.065-.144-.13-.287-.101-.286.062.002.184.133.307.265.097.105.195.21.263.25.044.027.215-.026.374-.075.134-.042.26-.08.291-.066.134.06.1.181.067.297-.008.03-.017.059-.022.087-.005.025.167-.074.347-.178.189-.109.388-.223.403-.206a.253.253 0 0 0 .01.011c.065.069.168.18-.597.704 0 .1.004.183.008.25.01.214.013.27-.15.27-.073 0-.175.032-.293.069-.303.095-.712.224-1.008-.07a193.207 193.207 0 0 0-1.045-1.018v.3l-.75-.676-.144.376-1.009-1.03-.272.135s.928 2.277 1.425 2.293c.247.008-.128.221-.625.503-.502.286-1.13.642-1.363.928-.07.085-.123-.044-.164-.327-.04.283-.095.412-.164.327-.233-.286-.86-.642-1.363-.928-.497-.282-.871-.495-.624-.503.496-.015 1.425-2.293 1.425-2.293l-.273-.135-1.009 1.03-.143-.376-.75.676v-.3s-.633.61-1.045 1.018c-.297.294-.706.165-1.008.07-.118-.037-.22-.07-.293-.07-.26 0-.346-.322 0-.718.292-.333.9-.318 1.427-.305.1.002.195.005.286.005.575 0 0-.376 0-.376l.213-.083.202-.079-.274-.163h.745l-.253-.194.893-.713s-1.6.68-3.78-1.572Z" clip-rule="evenodd"/><path fill="#F6C540" fill-rule="evenodd" d="m16.987 19.03-.984-1.534s-1.288-2.638-1.288-2.958c0-.32-.518-1.27-.518-.994v.994l2.172 4.349v.342h.293l.325-.199Z" clip-rule="evenodd"/><path fill="#F6C540" d="m24.873 16.965.15-.442 1.828.49-.15.442-1.828-.49Z"/><path fill="#F6C540" d="m25.846 16.16.495.144-.483 1.378-.495-.144.483-1.378Z"/><path fill="#F6C540" fill-rule="evenodd" d="m26.307 15.711-.106-.021-.043.152-.196-.043-.023.093.193.042-.05.173.107.022.049-.172.192.042.024-.093-.19-.041.043-.154Zm-5.65-8.489.053.166h.162l.054-.166c.135.036.258.077.368.123l.003-.036c.869.07 1.32.394 1.27.962-.04.47-.307.716-.753.71v.351s-.727.248-1.09.248c-.364 0-1.091-.248-1.091-.248v-.357c-.368-.04-.587-.282-.623-.704-.048-.568.402-.891 1.27-.962l.005.038a2.89 2.89 0 0 1 .372-.125Zm-.92 1.444a7.311 7.311 0 0 0-.097.025c-.2-.033-.297-.175-.32-.44-.022-.27.12-.456.455-.564-.229.26-.245.59-.038.98Zm.31-.071c.183-.04.395-.078.565-.092v-.97c-.697.217-.865.55-.565 1.062Zm.876-.083c.234.027.518.09.701.134l-.092-.045c.311-.527.13-.865-.609-1.083v.994Zm.886-.823c.233.267.244.608.018 1.01.275.004.404-.137.43-.448.023-.268-.117-.454-.448-.562Z" clip-rule="evenodd"/><path fill="#3D58DB" fill-rule="evenodd" d="M20.723 7.52c.201 0 .364-.145.364-.324 0-.178-.163-.323-.364-.323-.2 0-.363.145-.363.323 0 .179.163.323.363.323Z" clip-rule="evenodd"/><path fill="#F6C540" fill-rule="evenodd" d="m20.774 6.498-.109.002v.157h-.202l.002.096h.2l-.002.178.11-.002v-.177h.198l-.002-.096h-.196l.001-.158Z" clip-rule="evenodd"/><path fill="#1E5E91" fill-rule="evenodd" d="M18.698 12.36s1.28-.215 1.974-.215c.622 0 1.973.214 1.973.214 0 1.36.43 2.193 0 3.122-.431.929-1.483.482-1.96 1.371-.608-.843-1.43-.379-1.987-1.58-.556-1.2.339-1.753 0-2.913Z" clip-rule="evenodd"/><mask id="e" width="5" height="5" x="18" y="12" maskUnits="userSpaceOnUse" style="mask-type:alpha"><path fill="#fff" fill-rule="evenodd" d="M18.698 12.36s1.28-.215 1.974-.215c.622 0 1.973.214 1.973.214 0 1.36.43 2.193 0 3.122-.431.929-1.483.482-1.96 1.371-.608-.843-1.43-.379-1.987-1.58-.556-1.2.339-1.753 0-2.913Z" clip-rule="evenodd"/></mask><g mask="url(#e)"><path fill="#5EAA22" d="M18.698 15.197h3.946V16.9h-3.946z"/><path fill="#F6C540" fill-rule="evenodd" d="M19.865 13.03c-.15-.285.793-.319.793-.319s.203.318 0 .77c-.148.33.098.3.439.26.128-.015.268-.032.406-.032.218 0 .33-.014.423.02.125.045.22.177.49.545.126.171.12.284.044.351.007.174-.207.319-.6.411l-.052-.183c.208-.049.336-.096.395-.147-.297.016-.7-.115-.7-.282 0-.08-.1-.13-.255-.158v.04a.078.078 0 0 0 .028-.03v.003a.46.46 0 0 0 .01.044l.02.076.005.017a.922.922 0 0 1 .041.262c0 .239-.228.38-.642.433l-.03-.187c.324-.042.465-.128.465-.246a.795.795 0 0 0-.035-.217l-.003-.011a1.44 1.44 0 0 1-.023-.084.375.375 0 0 1-.015-.093c0-.01 0-.02.002-.03a7.443 7.443 0 0 0-.899.006c-.058.447-.318.734-.774.841l-.052-.183c.357-.084.56-.295.615-.647-.137.008-.25.014-.322.014-.206 0-.186-.138-.087-.322-.386-.025-.482-.404-.333-1.071l.204.038c-.132.588-.058.845.172.845v.114c.057-.094.13-.195.199-.294l.071-.102c.118-.17.158-.215.15-.248-.01-.035-.072-.057-.15-.205Zm1.413 1.246v-.003a.02.02 0 0 1-.001.004v-.001Zm.85-1.29c-.57-.081-.89-.003-.89.28 0 .27.304.387.859.385l.056.018a.906.906 0 0 1-.075.028l.069.178c.35-.112.35-.311-.005-.41l-.015-.003h-.016c-.46.003-.665-.074-.665-.196 0-.111.194-.158.65-.094l.032-.187Z" clip-rule="evenodd"/></g></g></g></g></g><defs><clipPath id="b"><rect width="36" height="24" x="3" y="2" fill="#fff" rx="2"/></clipPath><filter id="a" width="42" height="30" x="0" y="0" color-interpolation-filters="sRGB" filterUnits="userSpaceOnUse"><feFlood flood-opacity="0" result="BackgroundImageFix"/><feColorMatrix in="SourceAlpha" result="hardAlpha" values="0 0 0 0 0 0 0 0 0 0 0 0 0 0 0 0 0 0 127 0"/><feOffset dy="1"/><feGaussianBlur stdDeviation="1"/><feColorMatrix values="0 0 0 0 0.0627451 0 0 0 0 0.0941176 0 0 0 0 0.156863 0 0 0 0.06 0"/><feBlend in2="BackgroundImageFix" result="effect1_dropShadow_91_26547"/><feColorMatrix in="SourceAlpha" result="hardAlpha" values="0 0 0 0 0 0 0 0 0 0 0 0 0 0 0 0 0 0 127 0"/><feOffset dy="1"/><feGaussianBlur stdDeviation="1.5"/><feColorMatrix values="0 0 0 0 0.0627451 0 0 0 0 0.0941176 0 0 0 0 0.156863 0 0 0 0.1 0"/><feBlend in2="effect1_dropShadow_91_26547" result="effect2_dropShadow_91_26547"/><feBlend in="SourceGraphic" in2="effect2_dropShadow_91_26547" result="shape"/></filter></defs></svg>
